Newaita/actions/16/meeting-participant-no-response.svg

<?xml version="1.0" encoding="UTF-8"?>
<svg xmlns="http://www.w3.org/2000/svg" xmlns:xlink="http://www.w3.org/1999/xlink" width="16pt" height="16pt" viewBox="0 0 16 16" version="1.1">
<g id="surface1">
<path style=" stroke:none;fill-rule:nonzero;fill:rgb(47.058824%,56.470591%,61.176473%);fill-opacity:0.996078;" d="M 11.246094 6.738281 C 9.964844 6.738281 8.929688 7.773438 8.929688 9.054688 C 8.929688 10.339844 9.964844 11.371094 11.246094 11.371094 C 12.527344 11.371094 13.5625 10.339844 13.5625 9.054688 C 13.5625 7.773438 12.527344 6.738281 11.246094 6.738281 Z M 11.246094 7.734375 C 11.980469 7.734375 12.570312 8.324219 12.570312 9.054688 C 12.570312 9.789062 11.980469 10.378906 11.246094 10.378906 C 10.511719 10.378906 9.921875 9.789062 9.921875 9.054688 C 9.921875 8.324219 10.511719 7.734375 11.246094 7.734375 Z M 11.246094 7.734375 "/>
<path style=" stroke:none;fill-rule:nonzero;fill:rgb(47.058824%,56.470591%,61.176473%);fill-opacity:1;" d="M 9.542969 11.289062 C 8.199219 11.703125 7.277344 12.59375 7.277344 13.628906 L 7.277344 13.6875 L 7.304688 13.6875 C 7.285156 13.738281 7.277344 13.792969 7.277344 13.851562 L 7.277344 14.84375 C 7.277344 14.859375 7.277344 14.875 7.277344 14.890625 C 7.277344 14.902344 7.277344 14.914062 7.277344 14.925781 C 7.277344 15.15625 7.496094 15.339844 7.773438 15.339844 L 14.71875 15.339844 C 14.992188 15.339844 15.214844 15.15625 15.214844 14.925781 C 15.214844 14.914062 15.214844 14.902344 15.210938 14.890625 C 15.214844 14.875 15.214844 14.859375 15.214844 14.84375 L 15.214844 13.851562 C 15.214844 13.792969 15.203125 13.738281 15.1875 13.6875 L 15.214844 13.6875 L 15.214844 13.628906 C 15.214844 12.59375 14.289062 11.703125 12.949219 11.289062 C 12.527344 11.746094 11.921875 12.03125 11.246094 12.03125 C 10.570312 12.03125 9.964844 11.746094 9.542969 11.289062 Z M 9.574219 12.316406 C 9.996094 12.753906 10.589844 13.023438 11.246094 13.023438 C 11.902344 13.023438 12.496094 12.753906 12.917969 12.316406 C 13.707031 12.613281 14.222656 13.113281 14.222656 13.6875 L 14.25 13.6875 C 14.234375 13.738281 14.222656 13.792969 14.222656 13.851562 L 14.222656 14.511719 L 8.269531 14.511719 L 8.269531 13.851562 C 8.269531 13.792969 8.257812 13.738281 8.242188 13.6875 L 8.269531 13.6875 C 8.269531 13.113281 8.785156 12.613281 9.574219 12.316406 Z M 9.574219 12.316406 "/>
<path style=" stroke:none;fill-rule:nonzero;fill:rgb(25.882354%,25.882354%,25.882354%);fill-opacity:0.392157;" d="M 1.984375 2.769531 C 2.714844 2.769531 3.308594 3.363281 3.308594 4.09375 C 3.308594 4.824219 2.714844 5.417969 1.984375 5.417969 C 1.253906 5.417969 0.660156 4.824219 0.660156 4.09375 C 0.660156 3.363281 1.253906 2.769531 1.984375 2.769531 Z M 1.984375 2.769531 "/>
<path style=" stroke:none;fill-rule:nonzero;fill:rgb(25.882354%,25.882354%,25.882354%);fill-opacity:0.392157;" d="M 5.292969 2.769531 C 6.023438 2.769531 6.613281 3.363281 6.613281 4.09375 C 6.613281 4.824219 6.023438 5.417969 5.292969 5.417969 C 4.5625 5.417969 3.96875 4.824219 3.96875 4.09375 C 3.96875 3.363281 4.5625 2.769531 5.292969 2.769531 Z M 5.292969 2.769531 "/>
<path style=" stroke:none;fill-rule:nonzero;fill:rgb(25.882354%,25.882354%,25.882354%);fill-opacity:0.392157;" d="M 8.601562 2.769531 C 9.332031 2.769531 9.921875 3.363281 9.921875 4.09375 C 9.921875 4.824219 9.332031 5.417969 8.601562 5.417969 C 7.867188 5.417969 7.277344 4.824219 7.277344 4.09375 C 7.277344 3.363281 7.867188 2.769531 8.601562 2.769531 Z M 8.601562 2.769531 "/>
</g>
</svg>

<svg xmlns="http://www.w3.org/2000/svg" width="16pt" height="16pt" viewBox="0 0 16 16"><path d="M11.246 6.738A2.314 2.314 0 0 0 8.93 9.055a2.311 2.311 0 0 0 2.316 2.316 2.311 2.311 0 0 0 2.316-2.316 2.314 2.314 0 0 0-2.316-2.317zm0 .996c.734 0 1.324.59 1.324 1.32a1.32 1.32 0 0 1-1.324 1.325 1.32 1.32 0 0 1-1.324-1.324c0-.73.59-1.32 1.324-1.32zm0 0" fill="#78909c" fill-opacity=".996"/><path d="M9.543 11.29c-1.344.413-2.266 1.304-2.266 2.339v.059h.028a.452.452 0 0 0-.028.164V14.926c0 .23.22.414.496.414h6.946c.273 0 .496-.184.496-.414 0-.012 0-.024-.004-.035.004-.016.004-.032.004-.047v-.992a.555.555 0 0 0-.027-.165h.027v-.058c0-1.035-.926-1.926-2.266-2.34a2.307 2.307 0 0 1-1.703.742 2.307 2.307 0 0 1-1.703-.742zm.031 1.026a2.314 2.314 0 0 0 1.672.707c.656 0 1.25-.27 1.672-.707.789.297 1.305.797 1.305 1.371h.027a.555.555 0 0 0-.027.165v.66H8.27v-.66a.555.555 0 0 0-.028-.165h.028c0-.574.515-1.074 1.304-1.37zm0 0" fill="#78909c"/><path d="M1.984 2.77a1.325 1.325 0 0 1 0 2.648 1.325 1.325 0 0 1 0-2.648zm0 0M5.293 2.77c.73 0 1.32.593 1.32 1.324a1.322 1.322 0 1 1-2.644 0c0-.73.594-1.324 1.324-1.324zm0 0M8.602 2.77c.73 0 1.32.593 1.32 1.324a1.322 1.322 0 1 1-2.645 0c0-.73.59-1.324 1.325-1.324zm0 0" fill="#424242" fill-opacity=".392"/></svg>
